X: 40996
T: Trip To Durrow, The
R: reel
M: 4/4
K: Dmajor
D2 (3FED ADFD|defd BABc|dBBA dBBA|FADE FE E2|
D2 (3FED ADFD|defd BABc|dBBA FAdB|AFGE FD D2:|
|:ABde fefg|afdf gfed|cdef gebe|gebe gfef|
dcde fefg|afdf gfed|cdef gbag|fdec d3 e||
fdec d3 e|fded Be e2|dBBA dBBA|FADE FE E2|
D2 (3FED ADFD|defd BABc|dBBA FAdB|AFGF FD D2:|

